images/copyright.svg

<svg width="9" height="9" viewBox="0 0 9 9" fill="none" xmlns="http://www.w3.org/2000/svg">
<path d="M4.5 0C6.984 0 9 2.016 9 4.5C9 6.984 6.984 9 4.5 9C2.016 9 0 6.984 0 4.5C0 2.016 2.016 0 4.5 0ZM4.5 0.9C2.511 0.9 0.9 2.511 0.9 4.5C0.9 6.489 2.511 8.1 4.5 8.1C6.489 8.1 8.1 6.489 8.1 4.5C8.1 2.511 6.489 0.9 4.5 0.9ZM4.5 2.25C5.319 2.25 6.03585 2.68785 6.4296 3.3426L5.6583 3.80565C5.53692 3.60326 5.3646 3.43622 5.15853 3.3212C4.95246 3.20618 4.71983 3.14718 4.48385 3.1501C4.24787 3.15302 4.01678 3.21775 3.81362 3.33784C3.61045 3.45793 3.44232 3.62917 3.32598 3.8345C3.20964 4.03984 3.14917 4.27208 3.15058 4.50807C3.15199 4.74407 3.21524 4.97557 3.33403 5.1795C3.45281 5.38342 3.62298 5.55265 3.82757 5.67029C4.03215 5.78794 4.264 5.8499 4.5 5.85C4.73316 5.85015 4.96238 5.78987 5.1653 5.67504C5.36823 5.56021 5.53793 5.39475 5.65785 5.1948L6.4296 5.6574C6.17671 6.07978 5.79224 6.40754 5.33517 6.59041C4.87809 6.77328 4.37365 6.80116 3.8992 6.66978C3.42476 6.53839 3.00651 6.255 2.70861 5.86307C2.41071 5.47114 2.2496 4.9923 2.25 4.5C2.25 3.258 3.258 2.25 4.5 2.25Z" fill="#FCFCFC"/>
</svg>

<svg width="9" height="9" fill="none" xmlns="http://www.w3.org/2000/svg"><path d="M4.5 0C6.984 0 9 2.016 9 4.5S6.984 9 4.5 9 0 6.984 0 4.5 2.016 0 4.5 0Zm0 .9C2.511.9.9 2.511.9 4.5s1.611 3.6 3.6 3.6 3.6-1.611 3.6-3.6S6.489.9 4.5.9Zm0 1.35c.819 0 1.5358.4379 1.9296 1.0926l-.7713.463a1.35 1.35 0 1 0-.0004 1.3892l.7717.4626A2.2496 2.2496 0 0 1 2.25 4.5c0-1.242 1.008-2.25 2.25-2.25Z" fill="#FCFCFC"/></svg>
